public/svgs/spectrum/podcast.svg

<svg width="1em" height="1em" viewBox="0 0 30 30" fill="current" xmlns="http://www.w3.org/2000/svg">
    <path
        d="M14.5 12.866C13.125 12.866 12 13.9759 12 15.3324C12 16.689 13.125 17.7989 14.5 17.7989C15.875 17.7989 17 16.689 17 15.3324C17 13.9759 15.875 12.866 14.5 12.866ZM22 15.3324C22 11.2504 18.6375 7.93298 14.5 7.93298C10.3625 7.93298 7 11.2504 7 15.3324C7 18.0702 8.5125 20.4504 10.75 21.733L12 19.5871C10.5125 18.7239 9.5 17.1576 9.5 15.3324C9.5 12.607 11.7375 10.3995 14.5 10.3995C17.2625 10.3995 19.5 12.607 19.5 15.3324C19.5 17.1576 18.4875 18.7239 17 19.5871L18.25 21.733C20.4875 20.4504 22 18.0702 22 15.3324ZM14.5 3C7.6 3 2 8.52493 2 15.3324C2 19.8954 4.5125 23.8665 8.2375 26L9.4875 23.8665C6.5125 22.1523 4.5 18.9828 4.5 15.3324C4.5 9.8815 8.975 5.46649 14.5 5.46649C20.025 5.46649 24.5 9.8815 24.5 15.3324C24.5 18.9828 22.4875 22.1523 19.5 23.8665L20.75 26C24.4875 23.8665 27 19.8954 27 15.3324C27 8.52493 21.4 3 14.5 3Z"
        fill="current" />
</svg>

<svg xmlns="http://www.w3.org/2000/svg" width="1em" height="1em" fill="current" viewBox="0 0 30 30"><path d="M14.5 12.866c-1.375 0-2.5 1.11-2.5 2.466s1.125 2.467 2.5 2.467 2.5-1.11 2.5-2.467-1.125-2.466-2.5-2.466m7.5 2.466c0-4.082-3.363-7.399-7.5-7.399S7 11.25 7 15.333c0 2.737 1.512 5.117 3.75 6.4L12 19.587c-1.488-.863-2.5-2.43-2.5-4.255 0-2.725 2.238-4.933 5-4.933s5 2.208 5 4.933c0 1.826-1.012 3.392-2.5 4.255l1.25 2.146c2.238-1.283 3.75-3.663 3.75-6.4M14.5 3C7.6 3 2 8.525 2 15.332 2 19.895 4.513 23.866 8.238 26l1.25-2.134C6.513 22.153 4.5 18.984 4.5 15.332c0-5.45 4.475-9.866 10-9.866s10 4.416 10 9.866c0 3.65-2.012 6.82-5 8.534L20.75 26C24.488 23.866 27 19.895 27 15.332 27 8.525 21.4 3 14.5 3"/></svg>
